packages/assets/static/images/icons/bg-checklist.svg

<svg width="24" height="24" viewBox="0 0 24 24" xmlns="http://www.w3.org/2000/svg">
<path d="M20.875 12C20.875 12.2984 20.7565 12.5845 20.5455 12.7955C20.3345 13.0065 20.0484 13.125 19.75 13.125H11.5C11.2017 13.125 10.9155 13.0065 10.7045 12.7955C10.4935 12.5845 10.375 12.2984 10.375 12C10.375 11.7016 10.4935 11.4155 10.7045 11.2045C10.9155 10.9935 11.2017 10.875 11.5 10.875H19.75C20.0484 10.875 20.3345 10.9935 20.5455 11.2045C20.7565 11.4155 20.875 11.7016 20.875 12ZM11.5 7.12498H19.75C20.0484 7.12498 20.3345 7.00645 20.5455 6.79548C20.7565 6.5845 20.875 6.29835 20.875 5.99998C20.875 5.70161 20.7565 5.41546 20.5455 5.20449C20.3345 4.99351 20.0484 4.87498 19.75 4.87498H11.5C11.2017 4.87498 10.9155 4.99351 10.7045 5.20449C10.4935 5.41546 10.375 5.70161 10.375 5.99998C10.375 6.29835 10.4935 6.5845 10.7045 6.79548C10.9155 7.00645 11.2017 7.12498 11.5 7.12498ZM19.75 16.875H11.5C11.2017 16.875 10.9155 16.9935 10.7045 17.2045C10.4935 17.4155 10.375 17.7016 10.375 18C10.375 18.2984 10.4935 18.5845 10.7045 18.7955C10.9155 19.0065 11.2017 19.125 11.5 19.125H19.75C20.0484 19.125 20.3345 19.0065 20.5455 18.7955C20.7565 18.5845 20.875 18.2984 20.875 18C20.875 17.7016 20.7565 17.4155 20.5455 17.2045C20.3345 16.9935 20.0484 16.875 19.75 16.875ZM6.95408 3.70404L4.75002 5.90623L4.04596 5.20123C3.83461 4.98989 3.54797 4.87115 3.24908 4.87115C2.9502 4.87115 2.66355 4.98989 2.45221 5.20123C2.24086 5.41258 2.12213 5.69922 2.12213 5.99811C2.12213 6.29699 2.24086 6.58364 2.45221 6.79498L3.95221 8.29498C4.05672 8.39986 4.18092 8.48308 4.31766 8.53986C4.45441 8.59664 4.60102 8.62587 4.74908 8.62587C4.89715 8.62587 5.04376 8.59664 5.1805 8.53986C5.31725 8.48308 5.44144 8.39986 5.54596 8.29498L8.54596 5.29498C8.7573 5.08364 8.87603 4.79699 8.87603 4.49811C8.87603 4.19922 8.7573 3.91258 8.54596 3.70123C8.33461 3.48989 8.04797 3.37115 7.74908 3.37115C7.4502 3.37115 7.16355 3.48989 6.95221 3.70123L6.95408 3.70404ZM6.95408 9.70404L4.75002 11.9062L4.04596 11.2012C3.83461 10.9899 3.54797 10.8712 3.24908 10.8712C2.9502 10.8712 2.66355 10.9899 2.45221 11.2012C2.24086 11.4126 2.12213 11.6992 2.12213 11.9981C2.12213 12.297 2.24086 12.5836 2.45221 12.795L3.95221 14.295C4.05672 14.3999 4.18092 14.4831 4.31766 14.5399C4.45441 14.5966 4.60102 14.6259 4.74908 14.6259C4.89715 14.6259 5.04376 14.5966 5.1805 14.5399C5.31725 14.4831 5.44144 14.3999 5.54596 14.295L8.54596 11.295C8.7573 11.0836 8.87603 10.797 8.87603 10.4981C8.87603 10.1992 8.7573 9.91258 8.54596 9.70123C8.33461 9.48989 8.04797 9.37115 7.74908 9.37115C7.4502 9.37115 7.16355 9.48989 6.95221 9.70123L6.95408 9.70404ZM6.95408 15.704L4.75002 17.9062L4.04596 17.2012C3.94131 17.0966 3.81708 17.0136 3.68035 16.9569C3.54362 16.9003 3.39708 16.8712 3.24908 16.8712C3.10109 16.8712 2.95455 16.9003 2.81782 16.9569C2.68109 17.0136 2.55685 17.0966 2.45221 17.2012C2.34756 17.3059 2.26455 17.4301 2.20792 17.5668C2.15128 17.7036 2.12213 17.8501 2.12213 17.9981C2.12213 18.1461 2.15128 18.2926 2.20792 18.4294C2.26455 18.5661 2.34756 18.6903 2.45221 18.795L3.95221 20.295C4.05672 20.3999 4.18092 20.4831 4.31766 20.5399C4.45441 20.5966 4.60102 20.6259 4.74908 20.6259C4.89715 20.6259 5.04376 20.5966 5.1805 20.5399C5.31725 20.4831 5.44144 20.3999 5.54596 20.295L8.54596 17.295C8.7573 17.0836 8.87603 16.797 8.87603 16.4981C8.87603 16.1992 8.7573 15.9126 8.54596 15.7012C8.33461 15.4899 8.04797 15.3712 7.74908 15.3712C7.4502 15.3712 7.16355 15.4899 6.95221 15.7012L6.95408 15.704Z"/>
</svg>

<svg viewBox="0 0 24 24" xmlns="http://www.w3.org/2000/svg" aria-hidden="true" fill="currentColor" height="24px" width="24px"><path d="M20.875 12a1.125 1.125 0 0 1-1.125 1.125H11.5a1.125 1.125 0 0 1 0-2.25h8.25A1.125 1.125 0 0 1 20.875 12M11.5 7.125h8.25a1.125 1.125 0 0 0 0-2.25H11.5a1.125 1.125 0 0 0 0 2.25m8.25 9.75H11.5a1.125 1.125 0 0 0 0 2.25h8.25a1.125 1.125 0 1 0 0-2.25M6.954 3.704 4.75 5.906l-.704-.705a1.127 1.127 0 0 0-1.594 1.594l1.5 1.5a1.125 1.125 0 0 0 1.594 0l3-3a1.127 1.127 0 0 0-1.594-1.594zm0 6L4.75 11.906l-.704-.705a1.127 1.127 0 0 0-1.594 1.594l1.5 1.5a1.125 1.125 0 0 0 1.594 0l3-3a1.127 1.127 0 0 0-1.594-1.594zm0 6L4.75 17.906l-.704-.705a1.13 1.13 0 0 0-1.838.366 1.13 1.13 0 0 0 .244 1.228l1.5 1.5a1.125 1.125 0 0 0 1.594 0l3-3a1.127 1.127 0 0 0-1.594-1.594z"/></svg>
